X: 526
T: Wuge fangyang
L: 1/8
M: 2/4
K: F
A2f d [I:setbarnb 1]| 
c4 | 
A c A D | 
F4 | 
G A c f | 
d c A3/ c/ | 
G F A D | 
C4 | 
G E G/ A/ G/ A/ | 
G G G/ A/ G/ A/ | 
F E D C | 
c4 | 
c> f d c | 
F D F A/ c/ | 
G E G G/ A/ | 
c F A D | 
C4 | 
G E z G/ A/ | 
G A G/ A/ G/ A/ | 
F E D/ E/ D/ C/ | 
C4 |]

@@@ Tune index: 9400
